X:258
T:Barren Rocks of Aden
O:Scottish
M:4/4
L:1/8
R:March
K:D
e| fg fe df Ad | ce Ae fA de | fg fe df Ad |1 ce A f/2e/2 d2d e:|2 ce A f/2e/2 d2 fg|
|: a>f df eg Be/2f/2 | ge ce de ff/g/ | af df eg Be/f/|1 ge ce d2 fg:|2 ge ce d2 d2|
|:A2A2 df a2|ge cA dfa2|A2A2 df a2|1ge cA d2 d2:|2 ge cA d3 e|
